assets/img/stacked-steps-haikei.svg

<svg width="900" height="600" xmlns="http://www.w3.org/2000/svg"><path d="M0 37h82v60h82V43h81v54h82V55h82v18h82v24h82V73h82V37h81v36h164V0H0Z" fill="#fa7268"/><path d="M0 193h82v18h82v18h81v-30h82v-30h82v66h82v12h82v-12h82v-78h81v54h82v102h82V53v18H736V35h-81v36h-82v24h-82V71h-82V53h-82v42h-82V41h-81v54H82V35H0Z" fill="#ea5e66"/><path d="M0 319h82v-36h82v24h81v-60h82v78h82v78h82v-30h82v-18h82v-66h81v24h82v66h82V167v144h-82V209h-82v-54h-81v78h-82v12h-82v-12h-82v-66h-82v30h-82v30h-81v-18H82v-18H0Z" fill="#d84a64"/><path d="M0 481h164v18h81v-12h82v36h82v30h82v-60h82v30h82v-30h81v6h82v-6h82v6-224 102h-82v-66h-82v-24h-81v66h-82v18h-82v30h-82v-78h-82v-78h-82v60h-81v-24H82v36H0Z" fill="#c53762"/><path d="M0 601h900V491h-82v6h-82v-6h-81v30h-82v-30h-82v60h-82v-30h-82v-36h-82v12h-81v-18H0Z" fill="#b0235f"/></svg>

<svg id="visual" viewBox="0 0 900 600" width="900" height="600" xmlns="http://www.w3.org/2000/svg" xmlns:xlink="http://www.w3.org/1999/xlink" version="1.1"><path d="M0 37L82 37L82 97L164 97L164 43L245 43L245 97L327 97L327 55L409 55L409 73L491 73L491 97L573 97L573 73L655 73L655 37L736 37L736 73L818 73L818 73L900 73L900 55L900 0L900 0L818 0L818 0L736 0L736 0L655 0L655 0L573 0L573 0L491 0L491 0L409 0L409 0L327 0L327 0L245 0L245 0L164 0L164 0L82 0L82 0L0 0Z" fill="#fa7268"></path><path d="M0 193L82 193L82 211L164 211L164 229L245 229L245 199L327 199L327 169L409 169L409 235L491 235L491 247L573 247L573 235L655 235L655 157L736 157L736 211L818 211L818 313L900 313L900 169L900 53L900 71L818 71L818 71L736 71L736 35L655 35L655 71L573 71L573 95L491 95L491 71L409 71L409 53L327 53L327 95L245 95L245 41L164 41L164 95L82 95L82 35L0 35Z" fill="#ea5e66"></path><path d="M0 319L82 319L82 283L164 283L164 307L245 307L245 247L327 247L327 325L409 325L409 403L491 403L491 373L573 373L573 355L655 355L655 289L736 289L736 313L818 313L818 379L900 379L900 277L900 167L900 311L818 311L818 209L736 209L736 155L655 155L655 233L573 233L573 245L491 245L491 233L409 233L409 167L327 167L327 197L245 197L245 227L164 227L164 209L82 209L82 191L0 191Z" fill="#d84a64"></path><path d="M0 481L82 481L82 481L164 481L164 499L245 499L245 487L327 487L327 523L409 523L409 553L491 553L491 493L573 493L573 523L655 523L655 493L736 493L736 499L818 499L818 493L900 493L900 499L900 275L900 377L818 377L818 311L736 311L736 287L655 287L655 353L573 353L573 371L491 371L491 401L409 401L409 323L327 323L327 245L245 245L245 305L164 305L164 281L82 281L82 317L0 317Z" fill="#c53762"></path><path d="M0 601L82 601L82 601L164 601L164 601L245 601L245 601L327 601L327 601L409 601L409 601L491 601L491 601L573 601L573 601L655 601L655 601L736 601L736 601L818 601L818 601L900 601L900 601L900 497L900 491L818 491L818 497L736 497L736 491L655 491L655 521L573 521L573 491L491 491L491 551L409 551L409 521L327 521L327 485L245 485L245 497L164 497L164 479L82 479L82 479L0 479Z" fill="#b0235f"></path></svg>
